X:1
T:The Well-Tempered Clavier Part I Fuga XVI
T:BWV 861
T:J. S. Bach
%%score { ( 1 2 5 ) | ( 3 4 ) }
L:1/8
M:4/4
K:Bb
V:1 treble nm="Harp"
V:2 treble 
V:5 treble 
V:3 bass 
V:4 bass 
V:1
 z8 | z4 z GBD | ^C2 D2 z =E/F/ GF/E/ | FG/A/ BA/G/ AB/c/ d^B/_B/ | c2 B2 Ad/c/ Bc/d/ | %5
 ecA^f g2 z2 | z =EAF D2 ^CE- | ED G2- G/^F/G/A/ B2- | B2 A2- A/D/=E/^F/ G2- | G^F/G/ AG/F/ G3 c | %10
 FG/A/ B4 A2 | B2 z2 z4 | z C/D/ ED/C/ D/=E/D/E/ FE/D/ | G3 F/=E/ F2 EB- | B cdF E2 F2 | %15
 z G/A/ BA/G/ AB/c/ dc/B/ | cd/c/ Bc/d/ ef/e/ de/f/ | geca b z z2 | z g/_a/ ba/g/ aa/g/ fg/a/ | %19
 d g2 f/e/ d3 c/=B/ | c2 =Bd Gg_ac | =B2 c2 z d/e/ fe/d/ | e/d/e/f/ g z z d/c/ Bc/d/ | %23
 e/d/c/B/ A^f g z z/ d/c/B/ | A2- A/B/c/d/ G2- G/B/_A/G/ | F2- F/G/_A/B/ E2- E/G/F/E/ | %26
 D2- D/D/=E/^F/ G2- G/B/A/G/ | ^FdeG F2 G2 | z A/B/ cB/A/ d z z2 | z4 z d/e/ fe/d/ | %30
 e2- e/d/c/B/ A2 z e/d/ | cd/e/ d=e/^f/ gf/g/ a2- | adgf edc_B | A4 !fermata!G4 |] %34
V:2
 z[I:staff +1] DEG, ^F,2 G,2 |[I:staff -1] z[I:staff +1] A,/B,/ CB,/A,/ B,2 G,2 | %2
[I:staff -1] z/ z/[I:staff +1] A,/G,/ F,G,/A,/ B,G,=E,^C | D3 =E FEFG | %4
[I:staff -1] AG/^F/ G^C D A2 G/F/ | G2 ^FA d2 z2 | x8 | x8 | C6 B,_E | %9
 A,/[I:staff +1]B,/A,/B,/ CB,/A,/[I:staff -1] B,C/D/ E2- | E2 D2 C4 | z FGB, A,2 B,2 | x8 | x8 | %14
 z A2 G/A/ B2 A2- | AG/F/ =EC- CD/_E/ F>G | A2 G2 z cdF | E2 F2 z F/G/ _AG/F/ | %18
 G z z2 z f/e/ de/f/ | Be/d/ cd/e/ FG/F/ EF/G/ | _AFD=B c2 z[I:staff +1] E | %21
[I:staff -1] DE/F/ GA/=B/ cB/c/ dG- | Gc/d/ eG ^F2 G2- | GA/B/ cB/A/ B/D/=E/^F/ G2- | %24
 G/G/F/E/ D2- D/B,/C/D/ E2- | E/E/D/C/ B,2- B,/G,/A,/B,/ C2- | %26
 C/C/B,/A,/ G,2- G,/[I:staff +1]G,/[I:staff -1]A,/B,/ C^C | D2 z2 z d/c/ Bc/d/ | edce A z z2 | %29
 z ^F/G/ AG/F/ G4- | G4 z deG | ^F2 G2 z A/B/ cB/A/ | B3 [G=B] [Ac] z [DG] z | G2 ^F2 D4 |] %34
V:3
 z8 | z8 | z8 | z8 | z8 | z4 z G,[I:staff -1]B,[I:staff +1]D, | %6
 ^C,2 D,2 z =E,/[I:staff -1]F,/ G,[I:staff +1]F,/E,/ | F,G,/A,/ B,A,/G,/ A,B,/C/ DC/B,/ | %8
 =E,A,/G,/ ^F,G,/A,/ B,,C,/D,/ _E,D,/C,/ | D,4 G,,3 A,, | B,,F,G,D, E,D,/E,/ F,F,, | %11
[I:staff -1] D2[I:staff +1] z2 z F,/E,/ D,E,/F,/ | G,E,C,A,[I:staff -1] B,4- | %13
 B,C/B,/ A,B,/C/ DB,[I:staff +1]G,[I:staff -1]=E | F>E D2 C3 D/C/ | %15
[I:staff +1] B,4 A,2 z/ B,/C/D/ | EF/E/ D G,2 F,B,_A, | G,2 A,C F, z z2 | %18
 E,D,/C,/ D,=E, F,F,,/G,,/ _A,,G,,/F,,/ | G,,G,_A,C, =B,,2 C,2 | z D,/E,/ F,E,/D,/ ^D,=E,F,^F, | %21
 G,/_A,/G,/F,/ E,F,/G,/ A,F,D,=B, | C2- C/D/C/B,/ A,/D,/C,/D,/ E,/D,/C,/B,,/ | %23
 A,,C,D,D,, G,,G,/A,/ B,A,/G,/ | DD,/E,/ F,E,/D,/ E,,E,/F,/ G,F,/E,/ | %25
 B,B,,/C,/ D,C,/B,,/ C,,C,/D,/ E,D,/C,/ | G,G,,/A,,/ B,,A,,/G,,/ E,4 | z4 z DEG, | %28
 ^F,2 G,2 z[I:staff -1] A,/B,/ CB,/A,/ | B,4-[I:staff +1] B,_C/A,/ G,A,/=B,/ | C2 z2 z4 | z8 | %32
 z DEG, ^F,2 G,2 | z A,/[I:staff -1]B,/ CB,/A,/ =B,4 |] %34
V:4
 x8 | x8 | x8 | x8 | z D,E,G,, ^F,,2 G,,2 | z A,,/B,,/ C,B,,/A,,/ B,,2 G,,2 | %6
 z A,,/G,,/ F,,G,,/A,,/ B,,G,,=E,,^C, | D,8 | x8 | x8 | x8 | B,,2 z2 z4 | x8 | x8 | %14
 A,,2 B,,2 z C,/B,,/ A,,B,,/C,/ | D,B,,G,,=E, F,4- | F,F,G,B,, A,,2 B,,2 | %17
 z C,/D,/ E,D,/C,/ D,C,/B,,/ C,D, | x8 | x8 | x8 | x8 | x8 | x8 | x8 | x8 | x8 | D,2 z2 z4 | %28
 z D,E,G,, ^F,,2 A,,2 | D,,D,/C,/ B,,C,/D,/ E,4- | E,E,/D,/ C,D,/E,/ ^F,,B,,/A,,/ F,,G,,/A,,/ | %31
 D,,D,/C,/ B,,C,/D,/ E,C,A,,^F, | G,F,E,D, C,B,,A,,G,, | C,A,,D,D,, !fermata!G,,4 |] %34
V:5
 x8 | x8 | x8 | x8 | x8 | x8 | x8 | x8 | x8 | x8 | x8 | x8 | x8 | x8 | x8 | x8 | x8 | x8 | x8 | %19
 x8 | x8 | x8 | x8 | x8 | x8 | x8 | x8 | x8 | x8 | x8 | x8 | x8 | x8 | E2 D2 z4 |] %34

